X:1
T:What Are They Doing in Heaven?
T:What Are They Doing in Heaven?
T:Charles Albert Tindley
T:Charles Albert Tindley, 1901
T:Public Domain Courtesy of the Cyber Hymnal™
T:Public Domain Courtesy of the Cyber Hymnal™
C:Charles Albert Tindley
Z:Public Domain
Z:Courtesy of the Cyber Hymnal™
%%score ( 1 2 ) ( 3 4 )
L:1/8
Q:1/4=112
M:3/4
K:F
V:1 treble 
V:2 treble 
V:3 bass 
V:4 bass 
V:1
 F[FG] | [FA]4 ([FA][FA]) | ([FA]2 [FA]2) (F[FG]) | ([DF]2 [DF]2) D2 | [CF]4 (F[FG]) | %5
w: 1.~I am|think- ing~of *|friends * whom~I *|used * to|know, Who *|
w: 2.~There were|some whose *|hearts * were~bur- *|dened * with|cares, They *|
w: 3.~There were|some whose *|bodies * were *|full~of * dis-|ease, Medi- *|
w: 4.~They were|some who~were *|poor * and *|often * des-|pised; They *|
 [FA]4 [FA]2 | [FA]2 [EG]2 F2 | [FA]2 [EG]2 F2 | [EG]4 (AB) | [Fc]4 [Fd][Fc] | [FA]4 ([EG]F) | %11
w: lived and|suf- fered in|this world be-|low; They’ve *|gone up to|Heav- en:~but *|
w: passed their|mo- ments in|sigh- ing and|tears, They *|clung to the|cross with *|
w: cine nor|doc- tor could|give them much|ease; They *|suf- fered till|death brought~a *|
w: looked to|Heav- en thro’|tear- blind- ed|eyes. While *|peo- ple were|heed- less~and *|
 [DG]2 [DF]2 D2 | [CF]4 (F[FG]) | [FA]4 [FA]2 | ([EG]2 F3) [EG] | [CF]6- | [CF]4 || %17
w: I want to|know What *|are they|do- * ing|now?||
w: trem- bling and|fears, But~what *|are they|do- * ing|now?||
w: fin- al re-|lease, But~what *|are they|do- * ing|now?||
w: deaf to their|cries; But~what *|are they|do- * ing|now?||
"^Refrain" [Fc]2 | [Fd]4 [Fd]2 | [Fd]2 [Fc]2 [Fc]2 | [Fd]2 [Fc]3 [FA] | [Fc]4 [Fc]2 | [Fd]4 [Fd]2 | %23
w: ||||||
w: What|are they|do- ing in|Heav- en to-|day? Where|sin and|
w: ||||||
w: ||||||
 [Fd]2 [Fc]2 [Fc]2 | [Fd]2 [Fc]3 [FA] | [EG]4 F2 | [FA]4 [FA]2 | [FA]4 [EG]F | [DG]2 [DF]3 D | %29
w: ||||||
w: sor- row are|all done a-|way, And|peace a-|bounds like a|riv- er, they|
w: ||||||
w: ||||||
 [CF]4 [CF]2 | [FA]2 [FA]3 [FA] | [EG]2 [CF]3 [CG] | [CF]6- | [CF]4 |] %34
w: |||||
w: say; O|what are they|do- ing there|now?||
w: |||||
w: |||||
V:2
 F x | x6 | x4 F x | x4 D2 | x4 F x | x6 | x4 F2 | x4 F2 | x4 F2 | x6 | x5 F | x4 D2 | x4 F x | %13
 x6 | x2 F3 x | x6 | x4 || x2 | x6 | x6 | x6 | x6 | x6 | x6 | x6 | x4 F2 | x6 | x5 F | x5 D | x6 | %30
 x6 | x6 | x6 | x4 |] %34
V:3
 [F,A,][F,B,] | [F,C]4 ([F,C][F,C]) | ([F,C]2 [F,C]2) ([F,A,][F,B,]) | %3
 ([B,,B,]2 [B,,B,]2) [B,,B,]2 | [F,A,]4 ([F,A,][F,B,]) | [F,C]4 [F,C]2 | [F,C]2 [F,B,]2 [F,A,]2 | %7
 [C,C]2 [C,B,]2 [D,A,]2 | [C,C]4 (CB,) | [F,A,]4 [F,B,][F,A,] | [F,C]4 ([F,B,][F,A,]) | %11
 [B,,B,]2 [B,,B,]2 [B,,B,]2 | [F,A,]4 ([F,A,][F,B,]) | [F,C]4 [F,C]2 | ([C,B,]2 [C,A,]3) [C,B,] | %15
 [F,A,]6- | [F,A,]4 || [F,A,]2 | [B,,B,]4 [B,,B,]2 | [F,B,]2 [F,A,]2 [F,A,]2 | %20
 [F,B,]2 [F,A,]3 [F,C] | [F,A,]4 [F,A,]2 | [B,,B,]4 [B,,B,]2 | [F,B,]2 [F,A,]2 [F,A,]2 | %24
 [F,B,]2 [F,A,]3 [F,C] | [C,C]4 [F,A,]2 | [F,C]4 [F,C]2 | [F,C]4 [F,B,][F,A,] | %28
 [B,,B,]2 [B,,B,]3 [B,,B,] | [F,A,]4 [F,A,]2 | [C,C]2 [C,C]3 [C,C] | [C,B,]2 [C,A,]3 [C,B,] | %32
 [F,A,]6- | [F,A,]4 |] %34
V:4
 x2 | x6 | x6 | x6 | x6 | x6 | x6 | x6 | x4 F,2 | x6 | x6 | x6 | x6 | x6 | x6 | x6 | x4 || x2 | %18
 x6 | x6 | x6 | x6 | x6 | x6 | x6 | x6 | x6 | x6 | x6 | x6 | x6 | x6 | x6 | x4 |] %34

